flaticon/education/scroll.svg

<svg xmlns="http://www.w3.org/2000/svg" width="32" height="32" viewBox="0 0 24 24">
    <path d="M11.601562 10.019531L13.199219 10.019531C13.441406 10.019531 13.601562 9.859375 13.601562 9.621094 13.601562 9.378906 13.441406 9.21875 13.199219 9.21875L11.601562 9.21875C11.359375 9.21875 11.199219 9.378906 11.199219 9.621094 11.199219 9.859375 11.359375 10.019531 11.601562 10.019531zM15.199219 10.019531L16.800781 10.019531C17.039062 10.019531 17.199219 9.859375 17.199219 9.621094 17.199219 9.378906 17.039062 9.21875 16.800781 9.21875L15.199219 9.21875C14.960938 9.21875 14.800781 9.378906 14.800781 9.621094 14.800781 9.859375 14.960938 10.019531 15.199219 10.019531zM11.601562 11.621094L13.199219 11.621094C13.441406 11.621094 13.601562 11.460938 13.601562 11.21875 13.601562 10.980469 13.441406 10.820312 13.199219 10.820312L11.601562 10.820312C11.359375 10.820312 11.199219 10.980469 11.199219 11.21875 11.199219 11.460938 11.359375 11.621094 11.601562 11.621094zM15.199219 11.621094L16.800781 11.621094C17.039062 11.621094 17.199219 11.460938 17.199219 11.21875 17.199219 10.980469 17.039062 10.820312 16.800781 10.820312L15.199219 10.820312C14.960938 10.820312 14.800781 10.980469 14.800781 11.21875 14.800781 11.460938 14.960938 11.621094 15.199219 11.621094zM11.601562 13.21875L13.199219 13.21875C13.441406 13.21875 13.601562 13.058594 13.601562 12.820312 13.601562 12.578125 13.441406 12.421875 13.199219 12.421875L11.601562 12.421875C11.359375 12.421875 11.199219 12.578125 11.199219 12.820312 11.199219 13.058594 11.359375 13.21875 11.601562 13.21875zM15.199219 13.21875L16.800781 13.21875C17.039062 13.21875 17.199219 13.058594 17.199219 12.820312 17.199219 12.578125 17.039062 12.421875 16.800781 12.421875L15.199219 12.421875C14.960938 12.421875 14.800781 12.578125 14.800781 12.820312 14.800781 13.058594 14.960938 13.21875 15.199219 13.21875zM11.601562 14.820312L13.199219 14.820312C13.441406 14.820312 13.601562 14.660156 13.601562 14.421875 13.601562 14.179688 13.441406 14.019531 13.199219 14.019531L11.601562 14.019531C11.359375 14.019531 11.199219 14.179688 11.199219 14.421875 11.199219 14.660156 11.359375 14.820312 11.601562 14.820312zM15.199219 14.820312L16.800781 14.820312C17.039062 14.820312 17.199219 14.660156 17.199219 14.421875 17.199219 14.179688 17.039062 14.019531 16.800781 14.019531L15.199219 14.019531C14.960938 14.019531 14.800781 14.179688 14.800781 14.421875 14.800781 14.660156 14.960938 14.820312 15.199219 14.820312zM11.601562 16.421875L13.199219 16.421875C13.441406 16.421875 13.601562 16.261719 13.601562 16.019531 13.601562 15.78125 13.441406 15.621094 13.199219 15.621094L11.601562 15.621094C11.359375 15.621094 11.199219 15.78125 11.199219 16.019531 11.199219 16.261719 11.359375 16.421875 11.601562 16.421875zM15.199219 16.421875L16.800781 16.421875C17.039062 16.421875 17.199219 16.261719 17.199219 16.019531 17.199219 15.78125 17.039062 15.621094 16.800781 15.621094L15.199219 15.621094C14.960938 15.621094 14.800781 15.78125 14.800781 16.019531 14.800781 16.261719 14.960938 16.421875 15.199219 16.421875zM11.601562 18.019531L13.199219 18.019531C13.441406 18.019531 13.601562 17.859375 13.601562 17.621094 13.601562 17.378906 13.441406 17.21875 13.199219 17.21875L11.601562 17.21875C11.359375 17.21875 11.199219 17.378906 11.199219 17.621094 11.199219 17.859375 11.359375 18.019531 11.601562 18.019531zM15.199219 18.019531L16.800781 18.019531C17.039062 18.019531 17.199219 17.859375 17.199219 17.621094 17.199219 17.378906 17.039062 17.21875 16.800781 17.21875L15.199219 17.21875C14.960938 17.21875 14.800781 17.378906 14.800781 17.621094 14.800781 17.859375 14.960938 18.019531 15.199219 18.019531zM11.601562 19.621094L13.199219 19.621094C13.441406 19.621094 13.601562 19.460938 13.601562 19.21875 13.601562 18.980469 13.441406 18.820312 13.199219 18.820312L11.601562 18.820312C11.359375 18.820312 11.199219 18.980469 11.199219 19.21875 11.199219 19.460938 11.359375 19.621094 11.601562 19.621094zM15.199219 19.621094L16.800781 19.621094C17.039062 19.621094 17.199219 19.460938 17.199219 19.21875 17.199219 18.980469 17.039062 18.820312 16.800781 18.820312L15.199219 18.820312C14.960938 18.820312 14.800781 18.980469 14.800781 19.21875 14.800781 19.460938 14.960938 19.621094 15.199219 19.621094zM9.199219 14.019531L7.601562 14.019531C7.359375 14.019531 7.199219 14.179688 7.199219 14.421875 7.199219 14.660156 7.359375 14.820312 7.601562 14.820312L9.199219 14.820312C9.441406 14.820312 9.601562 14.660156 9.601562 14.421875 9.601562 14.179688 9.441406 14.019531 9.199219 14.019531zM9.199219 15.621094L7.601562 15.621094C7.359375 15.621094 7.199219 15.78125 7.199219 16.019531 7.199219 16.261719 7.359375 16.421875 7.601562 16.421875L9.199219 16.421875C9.441406 16.421875 9.601562 16.261719 9.601562 16.019531 9.601562 15.78125 9.441406 15.621094 9.199219 15.621094zM9.199219 17.21875L7.601562 17.21875C7.359375 17.21875 7.199219 17.378906 7.199219 17.621094 7.199219 17.859375 7.359375 18.019531 7.601562 18.019531L9.199219 18.019531C9.441406 18.019531 9.601562 17.859375 9.601562 17.621094 9.601562 17.378906 9.441406 17.21875 9.199219 17.21875zM9.199219 18.820312L7.601562 18.820312C7.359375 18.820312 7.199219 18.980469 7.199219 19.21875 7.199219 19.460938 7.359375 19.621094 7.601562 19.621094L9.199219 19.621094C9.441406 19.621094 9.601562 19.460938 9.601562 19.21875 9.601562 18.980469 9.441406 18.820312 9.199219 18.820312zM7.839844 13.21875L9 13.21875C9.558594 13.21875 10 12.78125 10 12.21875L10 9.859375C10 9.300781 9.558594 8.859375 9 8.859375L7.839844 8.859375C7.28125 8.859375 6.839844 9.300781 6.839844 9.859375L6.839844 12.21875C6.839844 12.78125 7.28125 13.21875 7.839844 13.21875zM7.601562 9.820312C7.601562 9.699219 7.679688 9.621094 7.800781 9.621094L8.960938 9.621094C9.078125 9.621094 9.160156 9.699219 9.160156 9.820312L9.160156 12.179688C9.160156 12.300781 9.078125 12.378906 8.960938 12.378906L7.800781 12.378906C7.679688 12.378906 7.601562 12.300781 7.601562 12.179688zM7.601562 9.820312"/>
    <path d="M 22.398438 2.820312 C 22.261719 2.820312 22.128906 2.839844 22 2.875 L 22 1.621094 C 22 0.941406 21.480469 0.421875 20.800781 0.421875 C 20.121094 0.421875 19.601562 0.941406 19.601562 1.621094 L 19.601562 2.019531 L 4.398438 2.019531 L 4.398438 1.621094 C 4.398438 0.941406 3.878906 0.421875 3.199219 0.421875 C 2.519531 0.421875 2 0.941406 2 1.621094 L 2 3.273438 C 1.871094 3.238281 1.738281 3.21875 1.601562 3.21875 C 0.71875 3.21875 0 3.941406 0 4.820312 C 0 5.699219 0.71875 6.421875 1.601562 6.421875 C 1.738281 6.421875 1.871094 6.402344 2 6.367188 L 2 8.019531 C 2 8.699219 2.519531 9.21875 3.199219 9.21875 C 3.878906 9.21875 4.398438 8.699219 4.398438 8.019531 L 4.800781 8.019531 L 4.800781 23.578125 L 6.199219 22.21875 L 7.398438 23.421875 L 8.601562 22.21875 L 9.800781 23.421875 L 11 22.21875 L 12.199219 23.421875 L 13.398438 22.21875 L 14.601562 23.421875 L 15.800781 22.21875 L 17 23.421875 L 18.199219 22.21875 L 19.199219 23.21875 L 19.199219 8.019531 L 19.601562 8.019531 C 19.601562 8.699219 20.121094 9.21875 20.800781 9.21875 C 21.480469 9.21875 22 8.699219 22 8.019531 L 22 5.964844 C 22.128906 6 22.261719 6.019531 22.398438 6.019531 C 23.28125 6.019531 24 5.300781 24 4.421875 C 24 3.539062 23.28125 2.820312 22.398438 2.820312 Z M 1.601562 5.621094 C 1.160156 5.621094 0.800781 5.261719 0.800781 4.820312 C 0.800781 4.378906 1.160156 4.019531 1.601562 4.019531 C 1.761719 4.019531 1.878906 4.058594 2 4.140625 L 2 5.5 C 1.878906 5.578125 1.761719 5.621094 1.601562 5.621094 Z M 3.199219 8.421875 C 2.960938 8.421875 2.800781 8.261719 2.800781 8.019531 L 2.800781 1.621094 C 2.800781 1.421875 2.960938 1.21875 3.199219 1.21875 C 3.441406 1.21875 3.601562 1.421875 3.601562 1.621094 L 3.601562 8.019531 C 3.601562 8.261719 3.441406 8.421875 3.199219 8.421875 Z M 18.398438 21.261719 L 18.199219 21.058594 L 17 22.261719 L 15.800781 21.058594 L 14.601562 22.261719 L 13.398438 21.058594 L 12.199219 22.261719 L 11 21.058594 L 9.800781 22.21875 L 8.601562 21.019531 L 7.398438 22.21875 L 6.199219 21.019531 L 5.601562 21.621094 L 5.601562 8.019531 L 18.398438 8.019531 Z M 19.199219 7.21875 L 4.398438 7.21875 L 4.398438 2.820312 L 19.601562 2.820312 L 19.601562 7.21875 Z M 21.199219 8.019531 C 21.199219 8.261719 21.039062 8.421875 20.800781 8.421875 C 20.558594 8.421875 20.398438 8.261719 20.398438 8.019531 L 20.398438 1.621094 C 20.398438 1.378906 20.558594 1.21875 20.800781 1.21875 C 21.039062 1.21875 21.199219 1.421875 21.199219 1.621094 Z M 22.398438 5.21875 C 22.238281 5.21875 22.121094 5.179688 22 5.101562 L 22 3.738281 C 22.121094 3.660156 22.238281 3.621094 22.398438 3.621094 C 22.839844 3.621094 23.199219 3.980469 23.199219 4.421875 C 23.199219 4.859375 22.839844 5.21875 22.398438 5.21875 Z M 22.398438 5.21875"/>
    <path d="M11.199219 3.621094L7.601562 3.621094C7.359375 3.621094 7.199219 3.78125 7.199219 4.019531 7.199219 4.261719 7.359375 4.421875 7.601562 4.421875L11.199219 4.421875C11.441406 4.421875 11.601562 4.261719 11.601562 4.019531 11.601562 3.78125 11.441406 3.621094 11.199219 3.621094zM11.199219 5.621094L6 5.621094C5.761719 5.621094 5.601562 5.78125 5.601562 6.019531 5.601562 6.261719 5.761719 6.421875 6 6.421875L11.199219 6.421875C11.441406 6.421875 11.601562 6.261719 11.601562 6.019531 11.601562 5.78125 11.441406 5.621094 11.199219 5.621094zM18 3.621094L14.398438 3.621094C14.160156 3.621094 14 3.78125 14 4.019531 14 4.261719 14.160156 4.421875 14.398438 4.421875L18 4.421875C18.238281 4.421875 18.398438 4.261719 18.398438 4.019531 18.398438 3.78125 18.238281 3.621094 18 3.621094zM18 5.621094L12.800781 5.621094C12.558594 5.621094 12.398438 5.78125 12.398438 6.019531 12.398438 6.261719 12.558594 6.421875 12.800781 6.421875L18 6.421875C18.238281 6.421875 18.398438 6.261719 18.398438 6.019531 18.398438 5.78125 18.238281 5.621094 18 5.621094zM18 5.621094"/>
</svg>

<svg xmlns="http://www.w3.org/2000/svg" width="32" height="32" viewBox="0 0 24 24">
    <path d="M11.602 10.02h1.597c.242 0 .403-.16.403-.399 0-.242-.16-.402-.403-.402h-1.597c-.243 0-.403.16-.403.402 0 .238.16.399.403.399zm0 0M15.2 10.02h1.6c.24 0 .4-.16.4-.399 0-.242-.16-.402-.4-.402h-1.6c-.24 0-.4.16-.4.402 0 .238.16.399.4.399zm0 0M11.602 11.621h1.597c.242 0 .403-.16.403-.402 0-.239-.16-.399-.403-.399h-1.597c-.243 0-.403.16-.403.399 0 .242.16.402.403.402zm0 0M15.2 11.621h1.6c.24 0 .4-.16.4-.402 0-.239-.16-.399-.4-.399h-1.6c-.24 0-.4.16-.4.399 0 .242.16.402.4.402zm0 0M11.602 13.219h1.597c.242 0 .403-.16.403-.399 0-.242-.16-.398-.403-.398h-1.597c-.243 0-.403.156-.403.398 0 .239.16.399.403.399zm0 0M15.2 13.219h1.6c.24 0 .4-.16.4-.399 0-.242-.16-.398-.4-.398h-1.6c-.24 0-.4.156-.4.398 0 .239.16.399.4.399zm0 0M11.602 14.82h1.597c.242 0 .403-.16.403-.398 0-.242-.16-.402-.403-.402h-1.597c-.243 0-.403.16-.403.402 0 .238.16.398.403.398zm0 0M15.2 14.82h1.6c.24 0 .4-.16.4-.398 0-.242-.16-.402-.4-.402h-1.6c-.24 0-.4.16-.4.402 0 .238.16.398.4.398zm0 0M11.602 16.422h1.597c.242 0 .403-.16.403-.402 0-.239-.16-.399-.403-.399h-1.597c-.243 0-.403.16-.403.399 0 .242.16.402.403.402zm0 0M15.2 16.422h1.6c.24 0 .4-.16.4-.402 0-.239-.16-.399-.4-.399h-1.6c-.24 0-.4.16-.4.399 0 .242.16.402.4.402zm0 0M11.602 18.02h1.597c.242 0 .403-.16.403-.399 0-.242-.16-.402-.403-.402h-1.597c-.243 0-.403.16-.403.402 0 .238.16.399.403.399zm0 0M15.2 18.02h1.6c.24 0 .4-.16.4-.399 0-.242-.16-.402-.4-.402h-1.6c-.24 0-.4.16-.4.402 0 .238.16.399.4.399zm0 0M11.602 19.621h1.597c.242 0 .403-.16.403-.402 0-.239-.16-.399-.403-.399h-1.597c-.243 0-.403.16-.403.399 0 .242.16.402.403.402zm0 0M15.2 19.621h1.6c.24 0 .4-.16.4-.402 0-.239-.16-.399-.4-.399h-1.6c-.24 0-.4.16-.4.399 0 .242.16.402.4.402zm0 0M9.2 14.02H7.601c-.243 0-.403.16-.403.402 0 .238.16.398.403.398h1.597c.242 0 .403-.16.403-.398 0-.242-.16-.402-.403-.402zm0 0M9.2 15.621H7.601c-.243 0-.403.16-.403.399 0 .242.16.402.403.402h1.597c.242 0 .403-.16.403-.402 0-.239-.16-.399-.403-.399zm0 0M9.2 17.219H7.601c-.243 0-.403.16-.403.402 0 .238.16.399.403.399h1.597c.242 0 .403-.16.403-.399 0-.242-.16-.402-.403-.402zm0 0M9.2 18.82H7.601c-.243 0-.403.16-.403.399 0 .242.16.402.403.402h1.597c.242 0 .403-.16.403-.402 0-.239-.16-.399-.403-.399zm0 0M7.84 13.219H9a.99.99 0 0 0 1-1v-2.36c0-.558-.441-1-1-1H7.84c-.559 0-1 .442-1 1v2.36c0 .562.441 1 1 1zM7.602 9.82c0-.12.078-.199.199-.199h1.16c.117 0 .2.078.2.2v2.359c0 .12-.083.199-.2.199H7.8c-.121 0-.2-.078-.2-.2zm0 0"/>
    <path d="M22.398 2.82c-.136 0-.27.02-.398.055V1.621c0-.68-.52-1.2-1.2-1.2-.679 0-1.198.52-1.198 1.2v.399H4.398V1.62c0-.68-.52-1.2-1.199-1.2C2.52.422 2 .942 2 1.622v1.652a1.509 1.509 0 0 0-.398-.054C.719 3.219 0 3.94 0 4.82c0 .88.719 1.602 1.602 1.602.136 0 .27-.02.398-.055V8.02c0 .68.52 1.199 1.2 1.199.679 0 1.198-.52 1.198-1.2h.403v15.56l1.398-1.36 1.2 1.203 1.203-1.203L9.8 23.422 11 22.219l1.2 1.203 1.198-1.203 1.204 1.203 1.199-1.203L17 23.422l1.2-1.203 1 1v-15.2h.402c0 .68.52 1.2 1.199 1.2.68 0 1.199-.52 1.199-1.2V5.966c.129.035.262.055.398.055.883 0 1.602-.72 1.602-1.598 0-.883-.719-1.602-1.602-1.602zM1.602 5.621a.802.802 0 0 1 0-1.601c.16 0 .277.039.398.12V5.5a.687.687 0 0 1-.398.121zm1.597 2.8c-.238 0-.398-.16-.398-.401V1.62c0-.2.16-.402.398-.402.242 0 .403.203.403.402V8.02c0 .242-.16.402-.403.402zm15.2 12.84l-.2-.202L17 22.262l-1.2-1.203-1.198 1.203-1.204-1.203-1.199 1.203L11 21.059l-1.2 1.16-1.198-1.2-1.204 1.2-1.199-1.2-.597.602V8.02h12.796zm.8-14.042H4.4V2.82h15.203V7.22zm2 .8c0 .243-.16.403-.398.403-.242 0-.403-.16-.403-.402V1.62c0-.242.16-.402.403-.402.238 0 .398.203.398.402zm1.2-2.8A.684.684 0 0 1 22 5.102V3.738a.684.684 0 0 1 .398-.117c.442 0 .801.36.801.8 0 .438-.36.798-.8.798zm0 0"/>
    <path d="M11.2 3.621H7.601c-.243 0-.403.16-.403.399 0 .242.16.402.403.402h3.597c.242 0 .403-.16.403-.402 0-.239-.16-.399-.403-.399zm0 0M11.2 5.621H6c-.238 0-.398.16-.398.399 0 .242.16.402.398.402h5.2c.241 0 .402-.16.402-.402 0-.239-.16-.399-.403-.399zm0 0M18 3.621h-3.602c-.238 0-.398.16-.398.399 0 .242.16.402.398.402H18c.238 0 .398-.16.398-.402 0-.239-.16-.399-.398-.399zm0 0M18 5.621h-5.2c-.241 0-.402.16-.402.399 0 .242.16.402.403.402H18c.238 0 .398-.16.398-.402 0-.239-.16-.399-.398-.399zm0 0"/>
</svg>
